Origami/16x16/apps/libreoffice-base-symbolic.svg

<svg width="16" height="16" version="1.1" xmlns="http://www.w3.org/2000/svg">
 <path d="m5 8.72v0.95c2.1 1.09 4 0 4 0v-0.95s-2.06 1.05-4 0z" style="fill:#5c5c5c"/>
 <ellipse cx="7" cy="7" rx="2" ry="1" style="fill:#5c5c5c"/>
 <path d="m5 10.72v0.95c2.1 1.09 4 0 4 0v-0.95s-2.06 1.05-4 0z" style="fill:#5c5c5c"/>
 <path d="m2 0c-0.5523 0-1 0.44772-1 1v14c0 0.552 0.4477 1 1 1h12c0.556 0 1-0.452 1-1v-7.5c0-0.2574-0.121-0.6214-0.31-0.81l-6.41-6.415c-0.1875-0.18754-0.5099-0.275-0.78-0.275zm1 2h4l6 6v6h-10z" style="fill:#5c5c5c"/>
 <path d="m11.5 0c-0.552 0-0.693 0.5146-0.354 0.85352l3 2.99998c0.351 0.3506 0.854 0.0885 0.854-0.3535v-3c0-0.28004-0.22-0.5-0.5-0.5z" style="fill:#5c5c5c"/>
</svg>

<svg xmlns="http://www.w3.org/2000/svg" width="16" height="16" version="1.1">
 <path style="fill:#5c5c5c" d="M 5,8.72 C 5,9.67 5,8.72 5,9.67 7.1,10.76 9,9.67 9,9.67 V 8.72 C 9,8.72 6.94,9.77 5,8.72 Z"/>
 <ellipse style="fill:#5c5c5c" cx="7" cy="7" rx="2" ry="1"/>
 <path style="fill:#5c5c5c" d="M 5,10.72 C 5,11.67 5,10.72 5,11.67 7.1,12.76 9,11.67 9,11.67 V 10.72 C 9,10.72 6.94,11.77 5,10.72 Z"/>
 <path style="fill:#5c5c5c" d="M 2,0 C 1.4477,0 1,0.44772 1,1 V 15 C 1,15.552 1.4477,16 2,16 H 14 C 14.556,16 15,15.548 15,15 V 7.5 C 15,7.2426 14.879,6.8786 14.69,6.69 L 8.28,0.275 C 8.0925,0.08746 7.7701,0 7.5,0 Z M 3,2 H 7 L 13,8 V 14 H 3 Z"/>
 <path style="fill:#5c5c5c" d="M 11.5,0 C 10.948,0 10.807,0.5146 11.146,0.85352 L 14.146,3.8535 C 14.497,4.2041 15,3.942 15,3.5 V 0.5 C 15,0.21996 14.78,0 14.5,0 Z"/>
</svg>
